icon-themes/breeze_svg/cmd/32/arrowshapes.up-right-arrow-callout.svg

<?xml version="1.0" encoding="UTF-8" standalone="no"?>
<!-- Created with Inkscape (http://www.inkscape.org/) -->

<svg
   xmlns:dc="http://purl.org/dc/elements/1.1/"
   xmlns:cc="http://creativecommons.org/ns#"
   xmlns:rdf="http://www.w3.org/1999/02/22-rdf-syntax-ns#"
   xmlns:svg="http://www.w3.org/2000/svg"
   xmlns="http://www.w3.org/2000/svg"
   xmlns:sodipodi="http://sodipodi.sourceforge.net/DTD/sodipodi-0.dtd"
   xmlns:inkscape="http://www.inkscape.org/namespaces/inkscape"
   width="32"
   height="32"
   id="svg5453"
   version="1.1"
   inkscape:version="0.91 r13725"
   sodipodi:docname="arrowshapes.up-right-arrow-callout.svg"
   viewBox="0 0 32 32">
  <defs
     id="defs5455" />
  <sodipodi:namedview
     id="base"
     pagecolor="#ffffff"
     bordercolor="#666666"
     borderopacity="1.0"
     inkscape:pageopacity="0"
     inkscape:pageshadow="2"
     inkscape:zoom="16.333329"
     inkscape:cx="4.0014778"
     inkscape:cy="9.4910314"
     inkscape:document-units="px"
     inkscape:current-layer="layer1"
     showgrid="true"
     fit-margin-top="0"
     fit-margin-left="0"
     fit-margin-right="0"
     fit-margin-bottom="0"
     inkscape:window-width="1920"
     inkscape:window-height="1021"
     inkscape:window-x="-4"
     inkscape:window-y="0"
     inkscape:window-maximized="1"
     inkscape:showpageshadow="false"
     borderlayer="true"
     showguides="true"
     inkscape:guide-bbox="true"
     inkscape:object-nodes="true"
     inkscape:snap-bbox="true"
     inkscape:snap-global="true">
    <inkscape:grid
       type="xygrid"
       id="grid4063" />
    <sodipodi:guide
       position="4,24"
       orientation="28,0"
       id="guide4280" />
    <sodipodi:guide
       position="13,4"
       orientation="0,28"
       id="guide4282" />
    <sodipodi:guide
       position="28,25"
       orientation="-28,0"
       id="guide4284" />
    <sodipodi:guide
       position="15,28"
       orientation="0,-28"
       id="guide4286" />
  </sodipodi:namedview>
  <metadata
     id="metadata5458">
    <rdf:RDF>
      <cc:Work
         rdf:about="">
        <dc:format>image/svg+xml</dc:format>
        <dc:type
           rdf:resource="http://purl.org/dc/dcmitype/StillImage" />
        <dc:title></dc:title>
      </cc:Work>
    </rdf:RDF>
  </metadata>
  <g
     inkscape:label="Capa 1"
     inkscape:groupmode="layer"
     id="layer1"
     transform="translate(-384.57143,-515.798)">
    <path
       style="color:#000000;display:inline;overflow:visible;visibility:visible;fill:#4d4d4d;fill-opacity:1;fill-rule:nonzero;stroke:none;stroke-width:2;marker:none;enable-background:accumulate"
       d="m 12,7 -4,5 2,0 0,4 -3,0 0,10 10,0 0,-3 4,0 0,2 5,-4 -5,-4 0,2 -4,0 0,-3 -3,0 0,-4 2,0 z"
       transform="translate(384.57143,515.798)"
       id="rect3861-8-7-3"
       inkscape:connector-curvature="0"
       sodipodi:nodetypes="ccccccccccccccccccc" />
  </g>
</svg>

<svg xmlns="http://www.w3.org/2000/svg" viewBox="0 0 32 32">
 <path 
     style="fill:#4d4d4d" 
     d="M 12 7 L 8 12 L 10 12 L 10 16 L 7 16 L 7 26 L 17 26 L 17 23 L 21 23 L 21 25 L 26 21 L 21 17 L 21 19 L 17 19 L 17 16 L 14 16 L 14 12 L 16 12 L 12 7 z "
     />
</svg>
